Numix/16/status/indicator-keyboard-Bg-1.svg

<?xml version="1.0" encoding="UTF-8" standalone="no"?>
<svg
   xmlns:dc="http://purl.org/dc/elements/1.1/"
   xmlns:cc="http://creativecommons.org/ns#"
   xmlns:rdf="http://www.w3.org/1999/02/22-rdf-syntax-ns#"
   xmlns:svg="http://www.w3.org/2000/svg"
   xmlns="http://www.w3.org/2000/svg"
   xmlns:sodipodi="http://sodipodi.sourceforge.net/DTD/sodipodi-0.dtd"
   xmlns:inkscape="http://www.inkscape.org/namespaces/inkscape"
   viewBox="0 0 16 16"
   id="svg2"
   version="1.1"
   inkscape:version="0.91 r13725"
   sodipodi:docname="indicator-keyboard-Bg-1.svg">
  <metadata
     id="metadata14">
    <rdf:RDF>
      <cc:Work
         rdf:about="">
        <dc:format>image/svg+xml</dc:format>
        <dc:type
           rdf:resource="http://purl.org/dc/dcmitype/StillImage" />
      </cc:Work>
    </rdf:RDF>
  </metadata>
  <defs
     id="defs12" />
  <sodipodi:namedview
     pagecolor="#ffffff"
     bordercolor="#666666"
     borderopacity="1"
     objecttolerance="10"
     gridtolerance="10"
     guidetolerance="10"
     inkscape:pageopacity="0"
     inkscape:pageshadow="2"
     inkscape:window-width="459"
     inkscape:window-height="369"
     id="namedview10"
     showgrid="false"
     inkscape:zoom="14.75"
     inkscape:cx="8"
     inkscape:cy="8"
     inkscape:window-x="65"
     inkscape:window-y="24"
     inkscape:window-maximized="0"
     inkscape:current-layer="svg2" />
  <path
     style="fill:#ececec;fill-opacity:1"
     d="M 1.5996094 0 C 0.71320937 2.9605947e-16 0 0.71320937 0 1.5996094 L 0 14.400391 C 2.9605947e-16 15.286791 0.71320937 16 1.5996094 16 L 14.400391 16 C 15.286791 16 16 15.286791 16 14.400391 L 16 1.5996094 C 16 0.71320937 15.286791 0 14.400391 0 L 1.5996094 0 z M 3.515625 4.8046875 C 3.851625 4.8046875 4.16875 4.8327187 4.46875 4.8867188 C 4.77475 4.9407187 5.0415313 5.03025 5.2695312 5.15625 C 5.4975313 5.28225 5.6785469 5.4501562 5.8105469 5.6601562 C 5.9485469 5.8641563 6.0175781 6.1197812 6.0175781 6.4257812 C 6.0175781 6.7617812 5.9298594 7.0490625 5.7558594 7.2890625 C 5.5878594 7.5230625 5.3602656 7.6853906 5.0722656 7.7753906 C 5.2522656 7.8173906 5.4183594 7.8770781 5.5683594 7.9550781 C 5.7183594 8.0330781 5.8488906 8.1357187 5.9628906 8.2617188 C 6.0768906 8.3817188 6.1646094 8.5309375 6.2246094 8.7109375 C 6.2906094 8.8849375 6.3242188 9.0957969 6.3242188 9.3417969 C 6.3242188 9.9297971 6.0890938 10.379406 5.6210938 10.691406 C 5.1530937 10.997406 4.431125 11.150391 3.453125 11.150391 C 3.351125 11.150391 3.2297969 11.144813 3.0917969 11.132812 C 2.9597969 11.126813 2.8217344 11.113703 2.6777344 11.095703 C 2.5397344 11.083703 2.4092031 11.068781 2.2832031 11.050781 C 2.1572031 11.026781 2.0489844 11.002516 1.9589844 10.978516 L 1.9589844 4.9765625 C 2.0669844 4.9465625 2.1863594 4.9222969 2.3183594 4.9042969 C 2.4503594 4.8802969 2.5846562 4.8616094 2.7226562 4.8496094 C 2.8666563 4.8316094 3.0047188 4.8204531 3.1367188 4.8144531 C 3.2747187 4.8084531 3.401625 4.8046875 3.515625 4.8046875 z M 3.515625 5.3261719 C 3.293625 5.3261719 3.1052188 5.3337031 2.9492188 5.3457031 C 2.7992188 5.3577031 2.6723125 5.372625 2.5703125 5.390625 L 2.5703125 7.5859375 L 3.7578125 7.5859375 C 3.9798125 7.5859375 4.1906719 7.5710156 4.3886719 7.5410156 C 4.5866719 7.5050156 4.7583438 7.4453281 4.9023438 7.3613281 C 5.0523438 7.2713281 5.1679531 7.1537656 5.2519531 7.0097656 C 5.3359531 6.8597656 5.3789063 6.6713594 5.3789062 6.4433594 C 5.3789062 6.2393594 5.3341406 6.0676875 5.2441406 5.9296875 C 5.1541406 5.7856875 5.0234688 5.668125 4.8554688 5.578125 C 4.6934688 5.488125 4.4994844 5.426625 4.2714844 5.390625 C 4.0434844 5.348625 3.791625 5.3261719 3.515625 5.3261719 z M 9.5253906 6.3535156 C 9.9573908 6.3535156 10.302547 6.3833594 10.560547 6.4433594 C 10.824547 6.4973594 11.040984 6.5514688 11.208984 6.6054688 L 11.208984 10.853516 C 11.208984 11.549516 11.029922 12.043891 10.669922 12.337891 C 10.309922 12.637891 9.7670158 12.787109 9.0410156 12.787109 C 8.7410156 12.787109 8.4667031 12.764797 8.2207031 12.716797 C 7.9807031 12.674797 7.7736094 12.6225 7.5996094 12.5625 L 7.7167969 12.03125 C 7.8607969 12.09725 8.0567344 12.155125 8.3027344 12.203125 C 8.5547344 12.251125 8.8065938 12.275391 9.0585938 12.275391 C 9.6105938 12.275391 10.009859 12.167172 10.255859 11.951172 C 10.507859 11.741172 10.632812 11.377328 10.632812 10.861328 L 10.632812 10.556641 C 10.596813 10.586641 10.542703 10.622063 10.470703 10.664062 C 10.398703 10.700062 10.309172 10.73925 10.201172 10.78125 C 10.099172 10.82325 9.9797971 10.858672 9.8417969 10.888672 C 9.7097969 10.912672 9.558625 10.925781 9.390625 10.925781 C 9.120625 10.925781 8.8594219 10.882828 8.6074219 10.798828 C 8.3554219 10.714828 8.1334063 10.582344 7.9414062 10.402344 C 7.7554062 10.222344 7.6061875 9.9929377 7.4921875 9.7109375 C 7.3781875 9.4229375 7.3203125 9.0740156 7.3203125 8.6660156 C 7.3203125 8.3360156 7.3726094 8.0300469 7.4746094 7.7480469 C 7.5766094 7.4660469 7.72025 7.2235312 7.90625 7.0195312 C 8.09825 6.8095312 8.3296094 6.6472031 8.5996094 6.5332031 C 8.8756094 6.4132031 9.1833906 6.3535156 9.5253906 6.3535156 z M 9.5351562 6.8847656 C 9.2831562 6.8847656 9.057375 6.9295312 8.859375 7.0195312 C 8.667375 7.1035312 8.5032344 7.2266719 8.3652344 7.3886719 C 8.2272344 7.5446719 8.1227813 7.7330781 8.0507812 7.9550781 C 7.9787813 8.1710781 7.9414062 8.4117812 7.9414062 8.6757812 C 7.9414062 8.9817812 7.9843594 9.2447969 8.0683594 9.4667969 C 8.1523594 9.6827969 8.2605781 9.8600469 8.3925781 9.9980469 C 8.5305781 10.136047 8.685375 10.238688 8.859375 10.304688 C 9.033375 10.364687 9.210625 10.394531 9.390625 10.394531 C 9.654625 10.394531 9.8953279 10.355344 10.111328 10.277344 C 10.333328 10.199344 10.505 10.109812 10.625 10.007812 L 10.625 7.0097656 C 10.523 6.9797656 10.390516 6.9536875 10.228516 6.9296875 C 10.066515 6.8996875 9.8351562 6.8847656 9.5351562 6.8847656 z M 2.5703125 8.1074219 L 2.5703125 10.564453 C 2.6603125 10.576453 2.7946094 10.591375 2.9746094 10.609375 C 3.1546094 10.621375 3.3374375 10.628906 3.5234375 10.628906 C 3.7994375 10.628906 4.0681719 10.610219 4.3261719 10.574219 C 4.5901719 10.538219 4.8195781 10.472953 5.0175781 10.376953 C 5.2155781 10.280953 5.3760937 10.148469 5.4960938 9.9804688 C 5.6160938 9.8124687 5.6757812 9.5960312 5.6757812 9.3320312 C 5.6757812 9.0920313 5.6328281 8.8942813 5.5488281 8.7382812 C 5.4648281 8.5762813 5.3454531 8.449375 5.1894531 8.359375 C 5.0334531 8.263375 4.8412812 8.1981094 4.6132812 8.1621094 C 4.3912813 8.1261094 4.1431875 8.1074219 3.8671875 8.1074219 L 2.5703125 8.1074219 z M 13.773438 8.8417969 L 14.041016 8.8417969 L 14.041016 12.896484 L 13.662109 12.896484 L 13.662109 9.421875 C 13.619209 9.468675 13.562387 9.5157063 13.492188 9.5664062 C 13.425887 9.6171063 13.349472 9.66805 13.263672 9.71875 C 13.177872 9.76555 13.087741 9.812575 12.994141 9.859375 C 12.900541 9.902275 12.806491 9.9375437 12.712891 9.9648438 L 12.601562 9.671875 C 12.835563 9.5899751 13.045216 9.4880813 13.228516 9.3632812 C 13.411816 9.2345813 13.594038 9.0601969 13.773438 8.8417969 z "
     id="path4" />
</svg>

<svg xmlns="http://www.w3.org/2000/svg" viewBox="0 0 16 16">
 <path d="m 1.6 0 c -0.886 0 -1.6 0.713 -1.6 1.6 l 0 12.801 c 0 0.886 0.713 1.6 1.6 1.6 l 12.801 0 c 0.886 0 1.6 -0.713 1.6 -1.6 l 0 -12.801 c 0 -0.886 -0.713 -1.6 -1.6 -1.6 l -12.801 0 z m 1.916 4.805 c 0.336 0 0.653 0.028 0.953 0.082 c 0.306 0.054 0.573 0.144 0.801 0.27 c 0.228 0.126 0.409 0.294 0.541 0.504 c 0.138 0.204 0.207 0.46 0.207 0.766 c 0 0.336 -0.088 0.623 -0.262 0.863 c -0.168 0.234 -0.396 0.396 -0.684 0.486 c 0.18 0.042 0.346 0.102 0.496 0.18 c 0.15 0.078 0.281 0.181 0.395 0.307 c 0.114 0.12 0.202 0.269 0.262 0.449 c 0.066 0.174 0.1 0.385 0.1 0.631 c 0 0.588 -0.235 1.038 -0.703 1.35 c -0.468 0.306 -1.19 0.459 -2.168 0.459 c -0.102 0 -0.223 -0.006 -0.361 -0.018 c -0.132 -0.006 -0.27 -0.019 -0.414 -0.037 c -0.138 -0.012 -0.269 -0.027 -0.395 -0.045 c -0.126 -0.024 -0.234 -0.048 -0.324 -0.072 l 0 -6 c 0.108 -0.03 0.227 -0.054 0.359 -0.072 c 0.132 -0.024 0.266 -0.043 0.404 -0.055 c 0.144 -0.018 0.282 -0.029 0.414 -0.035 c 0.138 -0.006 0.265 -0.01 0.379 -0.01 z m 0 0.521 c -0.222 0 -0.41 0.008 -0.566 0.02 c -0.15 0.012 -0.277 0.027 -0.379 0.045 l 0 2.195 l 1.188 0 c 0.222 0 0.433 -0.015 0.631 -0.045 c 0.198 -0.036 0.37 -0.096 0.514 -0.18 c 0.15 -0.09 0.266 -0.208 0.35 -0.352 c 0.084 -0.15 0.127 -0.338 0.127 -0.566 c 0 -0.204 -0.045 -0.376 -0.135 -0.514 c -0.09 -0.144 -0.221 -0.262 -0.389 -0.352 c -0.162 -0.09 -0.356 -0.152 -0.584 -0.188 c -0.228 -0.042 -0.48 -0.064 -0.756 -0.064 z m 6.01 1.027 c 0.432 0 0.777 0.03 1.035 0.09 c 0.264 0.054 0.48 0.108 0.648 0.162 l 0 4.248 c 0 0.696 -0.179 1.19 -0.539 1.484 c -0.36 0.3 -0.903 0.449 -1.629 0.449 c -0.3 0 -0.574 -0.022 -0.82 -0.07 c -0.24 -0.042 -0.447 -0.094 -0.621 -0.154 l 0.117 -0.531 c 0.144 0.066 0.34 0.124 0.586 0.172 c 0.252 0.048 0.504 0.072 0.756 0.072 c 0.552 0 0.951 -0.108 1.197 -0.324 c 0.252 -0.21 0.377 -0.574 0.377 -1.09 l 0 -0.305 c -0.036 0.03 -0.09 0.065 -0.162 0.107 c -0.072 0.036 -0.162 0.075 -0.27 0.117 c -0.102 0.042 -0.221 0.077 -0.359 0.107 c -0.132 0.024 -0.283 0.037 -0.451 0.037 c -0.27 0 -0.531 -0.043 -0.783 -0.127 c -0.252 -0.084 -0.474 -0.216 -0.666 -0.396 c -0.186 -0.18 -0.335 -0.409 -0.449 -0.691 c -0.114 -0.288 -0.172 -0.637 -0.172 -1.045 c 0 -0.33 0.052 -0.636 0.154 -0.918 c 0.102 -0.282 0.246 -0.525 0.432 -0.729 c 0.192 -0.21 0.423 -0.372 0.693 -0.486 c 0.276 -0.12 0.584 -0.18 0.926 -0.18 z m 0.01 0.531 c -0.252 0 -0.478 0.045 -0.676 0.135 c -0.192 0.084 -0.356 0.207 -0.494 0.369 c -0.138 0.156 -0.242 0.344 -0.314 0.566 c -0.072 0.216 -0.109 0.457 -0.109 0.721 c 0 0.306 0.043 0.569 0.127 0.791 c 0.084 0.216 0.192 0.393 0.324 0.531 c 0.138 0.138 0.293 0.241 0.467 0.307 c 0.174 0.06 0.351 0.09 0.531 0.09 c 0.264 0 0.505 -0.039 0.721 -0.117 c 0.222 -0.078 0.394 -0.168 0.514 -0.27 l 0 -2.998 c -0.102 -0.03 -0.234 -0.056 -0.396 -0.08 c -0.162 -0.03 -0.393 -0.045 -0.693 -0.045 z m -6.965 1.223 l 0 2.457 c 0.09 0.012 0.224 0.027 0.404 0.045 c 0.18 0.012 0.363 0.02 0.549 0.02 c 0.276 0 0.545 -0.019 0.803 -0.055 c 0.264 -0.036 0.493 -0.101 0.691 -0.197 c 0.198 -0.096 0.359 -0.228 0.479 -0.396 c 0.12 -0.168 0.18 -0.384 0.18 -0.648 c 0 -0.24 -0.043 -0.438 -0.127 -0.594 c -0.084 -0.162 -0.203 -0.289 -0.359 -0.379 c -0.156 -0.096 -0.348 -0.161 -0.576 -0.197 c -0.222 -0.036 -0.47 -0.055 -0.746 -0.055 l -1.297 0 z m 11.203 0.734 l 0.268 0 l 0 4.055 l -0.379 0 l 0 -3.475 c -0.043 0.047 -0.1 0.094 -0.17 0.145 c -0.066 0.051 -0.143 0.102 -0.229 0.152 c -0.086 0.047 -0.176 0.094 -0.27 0.141 c -0.094 0.043 -0.188 0.078 -0.281 0.105 l -0.111 -0.293 c 0.234 -0.082 0.444 -0.184 0.627 -0.309 c 0.183 -0.129 0.366 -0.303 0.545 -0.521 z" style="fill:#ececec;fill-opacity:1"/>
</svg>
